dist/assets/graphic-1.svg

<svg width="216" height="81" viewBox="0 0 216 81" fill="none" xmlns="http://www.w3.org/2000/svg">
<path d="M1 1L12.5147 12.5147C17.201 17.201 24.799 17.201 29.4853 12.5147L32.5147 9.48527C37.201 4.79898 44.799 4.79899 49.4853 9.48528L52.5147 12.5147C57.201 17.201 64.799 17.201 69.4853 12.5147L72.5147 9.48527C77.201 4.79898 84.799 4.79899 89.4853 9.48528L92.5147 12.5147C97.201 17.201 104.799 17.201 109.485 12.5147L112.515 9.48527C117.201 4.79898 124.799 4.79899 129.485 9.48528L132.515 12.5147C137.201 17.201 144.799 17.201 149.485 12.5147L152.515 9.48527C157.201 4.79898 164.799 4.79899 169.485 9.48528L181 21" stroke="#F25F4C" stroke-width="2"/>
<path d="M35 30.5L46.5147 42.0147C51.201 46.701 58.799 46.701 63.4853 42.0147L66.5147 38.9853C71.201 34.299 78.799 34.299 83.4853 38.9853L86.5147 42.0147C91.201 46.701 98.799 46.701 103.485 42.0147L106.515 38.9853C111.201 34.299 118.799 34.299 123.485 38.9853L126.515 42.0147C131.201 46.701 138.799 46.701 143.485 42.0147L146.515 38.9853C151.201 34.299 158.799 34.299 163.485 38.9853L166.515 42.0147C171.201 46.701 178.799 46.701 183.485 42.0147L186.515 38.9853C191.201 34.299 198.799 34.299 203.485 38.9853L215 50.5" stroke="#F25F4C" stroke-width="2"/>
<path d="M1 60L12.5147 71.5147C17.201 76.201 24.799 76.201 29.4853 71.5147L32.5147 68.4853C37.201 63.799 44.799 63.799 49.4853 68.4853L52.5147 71.5147C57.201 76.201 64.799 76.201 69.4853 71.5147L72.5147 68.4853C77.201 63.799 84.799 63.799 89.4853 68.4853L92.5147 71.5147C97.201 76.201 104.799 76.201 109.485 71.5147L112.515 68.4853C117.201 63.799 124.799 63.799 129.485 68.4853L132.515 71.5147C137.201 76.201 144.799 76.201 149.485 71.5147L152.515 68.4853C157.201 63.799 164.799 63.799 169.485 68.4853L181 80" stroke="#F25F4C" stroke-width="2"/>
</svg>

<svg width="216" height="81" fill="none" xmlns="http://www.w3.org/2000/svg"><path d="M1 1l11.515 11.515c4.686 4.686 12.284 4.686 16.97 0l3.03-3.03c4.686-4.686 12.284-4.686 16.97 0l3.03 3.03c4.686 4.686 12.284 4.686 16.97 0l3.03-3.03c4.686-4.686 12.284-4.686 16.97 0l3.03 3.03c4.686 4.686 12.284 4.686 16.97 0l3.03-3.03c4.686-4.686 12.284-4.686 16.97 0l3.03 3.03c4.686 4.686 12.284 4.686 16.97 0l3.03-3.03c4.686-4.686 12.284-4.686 16.97 0L181 21M35 30.5l11.515 11.515c4.686 4.686 12.284 4.686 16.97 0l3.03-3.03c4.686-4.686 12.284-4.686 16.97 0l3.03 3.03c4.686 4.686 12.284 4.686 16.97 0l3.03-3.03c4.686-4.686 12.284-4.686 16.97 0l3.03 3.03c4.686 4.686 12.284 4.686 16.97 0l3.03-3.03c4.686-4.686 12.284-4.686 16.97 0l3.03 3.03c4.686 4.686 12.284 4.686 16.97 0l3.03-3.03c4.686-4.686 12.284-4.686 16.97 0L215 50.5M1 60l11.515 11.515c4.686 4.686 12.284 4.686 16.97 0l3.03-3.03c4.686-4.686 12.284-4.686 16.97 0l3.03 3.03c4.686 4.686 12.284 4.686 16.97 0l3.03-3.03c4.686-4.686 12.284-4.686 16.97 0l3.03 3.03c4.686 4.686 12.284 4.686 16.97 0l3.03-3.03c4.686-4.686 12.284-4.686 16.97 0l3.03 3.03c4.686 4.686 12.284 4.686 16.97 0l3.03-3.03c4.686-4.686 12.284-4.686 16.97 0L181 80" stroke="#F25F4C" stroke-width="2"/></svg>
